app/dist/common/images/timkensteel.svg

<svg height="18" width="18" xmlns="http://www.w3.org/2000/svg"><path d="m0 0h18v18h-18z" fill="#f0f3fa"/><path d="m15 5h-12l.88 1.47h4.62v2h1v-2h4.62zm-7 2v1.47h-1.33l.26.53h5.67l-3.6 6-2.4-4h3.4l.31-.52h-4.03l-2.08-3.48zm5.8 0-.89 1.47h-2.91v-1.47z" fill="#003d7d"/><path d="m10 11-1 1.61-1-1.6h2z" fill="#f37320"/></svg>

<!-- by TradingView --><svg xmlns="http://www.w3.org/2000/svg" width="18" height="18"><path fill="#F0F3FA" d="M0 0h18v18H0z"/><path d="M15 5H3l.88 1.47H8.5v2h1v-2h4.62L15 5zM8 7v1.47H6.67l.26.53h5.67L9 15l-2.4-4H10l.31-.52H6.28L4.2 7H8zm5.8 0l-.89 1.47H10V7h3.8z" fill="#003D7D"/><path d="M10 11l-1 1.61-1-1.6h2z" fill="#F37320"/></svg>
